X:1
T:Limpsfield, 73.73.77.73
T:Limpsfield, 73.73.77.73
T:Josiah Booth, 1898
T:Public Domain Courtesy of the Cyber Hymnal™
C:Josiah Booth, 1898
Z:Public Domain
Z:Courtesy of the Cyber Hymnal™
%%score ( 1 2 ) ( 3 4 )
L:1/8
Q:1/4=110
M:3/4
K:D
V:1 treble 
V:2 treble 
V:3 bass 
V:4 bass 
V:1
 [DA]2 [CA] [DA]2 [DB] | (EF) [CG] [DF]3 | D3 [EG]3 | [CE]6 | [DA]2 [CA] [DA]2 [DB] | %5
 (EF) [CG] [DF]3 | [FB]3 [E^G]3 | [EA]6 | [Ec]2 [Ec] [Dd]2 [DA] | G2 [CA] [DF]3 | %10
 [EB]2 [EB] [Dd]2 [DF] | (AG) [DF] [CE]3 | D2 [DB] [DA]2 [CA] | A2 [Fd] [DB]3 | [Ge]3 [Gc]3 | %15
 [Fd]6 |] %16
V:2
 x6 | E2 x4 | D3 x3 | x6 | x6 | E2 x4 | x6 | x6 | x6 | (ED) x4 | x6 | E2 x4 | D2 x4 | (DE) x4 | %14
 x6 | x6 |] %16
V:3
 [D,F,]2 [E,G,] [F,A,]2 [G,D] | A,2 [A,,A,] [D,A,]3 | [G,B,]3 [E,B,]3 | A,6 | %4
 [D,F,]2 [E,G,] [F,A,]2 [G,D] | A,2 [A,,A,] [D,A,]3 | [B,,D]3 [E,B,]3 | [A,,C]6 | %8
 [G,A,]2 [G,A,] [F,A,]2 [F,A,] | [E,B,]2 [A,,A,] ([D,A,]2 [F,A,]) | [G,A,]2 [G,A,] [F,A,]2 [D,A,] | %11
 [C,A,]2 [D,A,] [A,,A,]3 | [B,,F,]2 [G,,G,] [D,F,]2 [E,G,] | ([F,A,]E,) [D,A,] [G,B,]3 | %14
 [E,B,]3 A,3 | [D,A,]6 |] %16
V:4
 x6 | A,2 x4 | x6 | A,6 | x6 | A,2 x4 | x6 | x6 | x6 | x6 | x6 | x6 | x6 | x6 | x3 A,3 | x6 |] %16

